src/washington-post.svg

<svg viewBox="0 0 698 105" fill="none" xmlns="http://www.w3.org/2000/svg"><g clip-path="url(#washington-post_svg__clip0_2_2997)"><path d="M39.2557 32.0455V68.6974C43.9624 65.8935 46.2656 61.8878 47.968 56.5802L49.1697 57.1811C48.0682 70.3998 38.8551 83.218 24.8352 83.218C10.8153 83.218 0 72.7031 0 55.8793C0 43.0611 7.71094 35.1499 18.7266 28.2401C17.2926 27.8373 15.8098 27.6351 14.3203 27.6392C7.11008 27.6392 2.90412 32.5462 2.90412 37.5533H1.50213C1.41884 36.8555 1.38537 36.1528 1.40199 35.4503C1.40199 26.1371 6.9098 15.7223 18.326 15.7223C25.6364 15.7223 31.2443 22.4318 39.7564 22.4318C44.0625 22.4318 46.4659 20.8295 48.1683 17.1243H49.37C49.2699 23.6335 47.3672 29.9425 39.2557 32.0455ZM20.2287 28.7408C15.1214 34.0483 10.1143 39.6562 10.1143 50.9723C10.1143 57.1811 12.017 63.3899 16.7237 67.3956L19.8281 65.6932V40.3572L16.6236 42.0597L15.6222 40.4574L30.6435 32.0455C26.8381 31.2443 23.7337 29.7422 20.2287 28.7408ZM37.353 32.446C36.5884 32.5314 35.8189 32.5649 35.0497 32.5462C33.7035 32.5668 32.3595 32.4324 31.044 32.1456V61.6875L18.2259 68.6974C21.0916 70.7995 24.5894 71.8594 28.1399 71.7017C31.3175 71.6889 34.4568 71.0064 37.353 69.6989V32.446ZM81.4155 41.6591V76.0078C81.4155 85.6214 72.8934 92.1407 63.3899 94.0334L62.7891 93.032C67.4957 90.7287 70.6001 86.6128 70.6001 81.6057V45.7649L65.6932 41.2585L63.0895 43.8622V71.0007L66.0937 73.8047V74.2052L57.9822 82.8275L48.669 74.3054V73.9048L52.2741 70.0994V25.8366L62.8892 14.5206L63.0895 14.6207V41.2585L71.8018 32.0455L80.5142 39.9567L83.218 37.353L84.5299 38.6548L81.4155 41.6591ZM98.0491 62.0881V66.5945L107.062 73.7045L114.072 66.3942L115.374 67.696L101.143 82.9176L88.3353 72.7031L85.5313 75.5071L84.3296 74.2052L87.434 71.0007V45.8651L106.361 32.0455L116.876 48.3686L98.0491 62.0881ZM98.2494 39.456L98.0491 39.5561V59.6847L106.761 53.2756L98.2494 39.456ZM180.256 82.8275L166.336 70.8104L155.721 82.8275L141.3 70.3999V50.772H138.496C137.492 50.7128 136.503 51.0446 135.738 51.698C134.973 52.3514 134.49 53.2756 134.391 54.277H133.389C133.069 53.0334 132.901 51.7556 132.888 50.4716C132.888 47.8679 133.99 41.0582 141.3 41.0582V25.8366C141.3 19.9283 137.395 19.6278 137.395 14.5206C137.395 8.8125 142.803 3.50497 152.717 0L153.618 0.801136C150.313 2.40341 147.609 4.40625 147.609 8.71236C147.609 15.3217 154.018 13.6193 154.018 24.0341V28.0398L165.735 15.7223L178.053 27.8395L189.669 15.7223L200.885 26.7379V63.7905L180.256 82.8275ZM165.635 32.8466L158.625 25.9368L154.018 30.6435V64.9922L162.531 72.3025L165.635 68.7976V32.8466ZM188.267 31.5447L182.659 25.9368L178.353 30.2429V64.892L188.167 73.5043L188.267 73.4041V31.5447ZM233.131 82.8275L223.717 74.2052H223.517L215.205 82.8275L205.091 73.9048L202.788 76.2081L201.486 74.9062L204.39 71.902V45.5646L223.417 31.9453L233.832 40.157L236.636 37.353L238.138 38.6548L234.533 42.0597V69.1981L239.139 73.4041L242.043 70.3999L243.545 71.8018L233.131 82.8275ZM223.717 45.3643L215.406 38.8551L215.205 39.0554V68.2969L221.314 73.7045L223.717 71.4013V45.3643ZM264.375 50.1712H273.788V71.6016L257.866 82.8275C256.785 81.5412 255.437 80.5064 253.914 79.7954C252.392 79.0845 250.733 78.7146 249.053 78.7116C246.049 78.7116 243.646 80.1136 241.242 82.7173L239.84 82.2166L253.66 62.3885H245.148V43.7621L261.771 32.0455C263.774 33.6477 265.376 34.6491 267.98 34.6491C270.53 34.7336 273.035 33.9576 275.09 32.446L276.092 33.147L264.375 50.1712ZM262.973 58.9837H258.266L247.151 74.9062L247.251 75.1065C249.44 73.4513 252.117 72.5706 254.861 72.603C256.395 72.6085 257.908 72.9524 259.292 73.6102C260.677 74.2681 261.9 75.2235 262.873 76.4084L262.973 76.3182V58.9837ZM269.382 39.3558C267.463 40.9879 264.987 41.8134 262.472 41.6591C261.28 41.6208 260.108 41.3441 259.024 40.8453C257.94 40.3465 256.968 39.6358 256.163 38.755L255.963 38.8551V53.4758H259.768L269.482 39.456L269.382 39.3558ZM309.439 41.6591V76.0078C309.439 85.6214 300.917 92.1407 291.413 94.0334L290.812 93.032C295.519 90.7287 298.624 86.6128 298.624 81.6057V45.7649L293.717 41.2585L291.113 43.8622V71.0007L294.117 73.8047V74.2052L286.006 82.8275L276.692 74.3054V73.9048L280.298 70.0994V25.8366L290.913 14.5206L291.113 14.6207V41.2585L299.825 32.0455L308.548 39.9567L311.251 37.353L312.553 38.6548L309.439 41.6591ZM329.067 82.8275L320.755 75.2067L317.951 78.0106L316.649 76.7088L319.954 73.304V44.7635L316.349 41.4588L313.645 44.0625L312.343 42.7606L322.457 32.0455L330.068 38.9553L332.772 36.1513L334.174 37.5533L330.769 40.9581V69.5987L334.975 73.5043L337.979 70.3999L339.281 71.8018L329.067 82.8275ZM326.163 31.1442L317.951 23.6335L325.462 15.6222L333.673 23.1328L326.163 31.1442ZM372.328 82.8275L363.616 74.9062V45.6648L358.909 41.2585L355.504 44.7635V70.9006L358.609 73.8047V74.2052L350.397 82.8275L341.084 74.3054V74.005L344.689 70.1996V44.9638L340.583 41.2585L337.579 44.2628L336.177 42.9609L346.391 32.0455L355.504 40.157V42.1598L365.018 32.0455L373.73 39.8565L376.634 36.9524L377.936 38.3544L374.431 41.8594V69.8991L378.337 73.6044L381.641 70.1996L382.843 71.5014L372.328 82.8275ZM415.389 41.7692V75.7074C415.389 80.9148 418.293 80.7145 418.293 84.62C418.293 89.1364 411.784 93.3424 401.77 100.853C398.465 97.2479 396.162 95.7458 393.057 95.7458C389.212 95.8851 385.49 97.1374 382.342 99.3509L381.341 98.5498L395.06 82.4169L386.048 75.3168L383.143 78.2109L381.842 76.9091L385.246 73.4041V45.5646L404.273 31.9453L414.488 39.9567L417.492 37.0526L418.794 38.3544L415.389 41.7692ZM407.678 83.5385C405.175 81.9262 404.574 80.2238 404.574 75.9177V74.4055L388.451 93.1321L388.551 93.2322C391.756 91.3295 394.159 90.1278 398.866 90.1278C402.871 90.1278 405.776 91.8302 408.379 94.1335C410.282 92.5312 411.684 90.929 411.684 88.4254C411.684 86.4326 410.182 85.1207 407.678 83.5285V83.5385ZM404.574 45.3643L396.262 38.8551L396.062 39.0554V69.799L401.97 74.4055L404.574 71.4013V45.3643ZM436.119 82.8275L427.306 75.9077L424.602 78.6115L423.3 77.3197L426.405 74.1051V39.456H420.597L420.396 39.2557L423.901 34.0483H426.405V27.3388L437.02 16.0227L437.22 16.223V34.0483H445.231L445.432 34.2486L441.927 39.456H437.22V69.799L442.027 73.5043L445.332 70.0994L446.633 71.5014L436.119 82.8275ZM479.891 42.6605V70.3999L462.967 82.9176L450.639 73.6044L447.835 76.4084L446.533 75.1065L449.738 71.8018V44.7635L467.473 32.0455L478.889 40.9581L481.793 38.054L483.095 39.456L479.891 42.6605ZM469.075 45.6648L460.653 39.0554L460.563 39.1555V68.9979L469.075 75.407V45.6648ZM519.547 82.7173L510.835 74.8061V45.5646L506.128 41.1584L502.713 44.6633V70.8004L505.817 73.7045V74.1051L497.606 82.7273L488.293 74.2052V73.9048L491.898 70.0994V44.8636L487.792 41.1584L484.788 44.1626L483.386 42.8608L493.6 31.9453L502.713 40.0568V42.0597L512.227 31.9453L520.939 39.7564L523.843 36.8523L525.145 38.2543L521.64 41.7592V69.799L525.545 73.5043L528.85 70.0994L530.052 71.4013L519.547 82.7173ZM581.024 82.8275C579.448 80.6744 577.244 79.0618 574.715 78.2109V99.0505L574.515 99.1506L569.007 94.0434L557.391 104.759L557.19 104.658V77.7102C553.147 78.7269 549.555 81.0547 546.976 84.3296L546.175 83.8289C546.876 76.1079 550.681 70.3998 557.19 68.1967V48.669H555.087C553.849 48.6323 552.637 49.0341 551.666 49.8037C550.695 50.5732 550.027 51.6609 549.78 52.875H548.578C548.053 51.3982 547.815 49.8346 547.877 48.2685C547.877 43.3615 551.182 39.6562 556.589 39.6562H557.19V28.8409L553.585 25.6364L550.781 28.4403L549.379 27.1385L560.495 15.7223L569.908 24.3345V34.1484L572.812 31.044V19.5277H574.715V29.0412L587.233 15.7223L598.549 26.0369V69.5987L581.024 82.8275ZM572.812 32.9467L569.908 35.951V92.341L572.812 95.0448V32.9467ZM585.931 30.6435L580.023 25.2358L574.715 30.8437V67.1953C579.422 67.7962 582.927 69.3984 585.831 72.5028L585.931 72.4027V30.6435ZM634.7 42.6605V70.3999L617.776 82.9176L605.459 73.6044L602.655 76.4084L601.353 75.1065L604.557 71.8018V44.7635L622.283 32.0455L633.699 40.9581L636.603 38.054L637.905 39.456L634.7 42.6605ZM623.885 45.6648L615.473 39.0554L615.373 39.1555V68.9979L623.885 75.407V45.6648ZM659.535 50.1712H668.949V71.6016L653.026 82.8275C651.946 81.5412 650.597 80.5064 649.075 79.7954C647.553 79.0845 645.894 78.7146 644.214 78.7116C641.209 78.7116 638.806 80.1136 636.403 82.7173L635.001 82.2166L648.82 62.3885H640.308V43.7621L656.932 32.0455C658.935 33.6477 660.537 34.6491 663.141 34.6491C665.694 34.7336 668.201 33.9577 670.261 32.446L671.262 33.147L659.535 50.1712ZM658.133 58.9837H653.427L642.311 74.9062L642.411 75.1065C644.6 73.4513 647.278 72.5706 650.022 72.603C651.555 72.6085 653.068 72.9524 654.453 73.6102C655.838 74.2681 657.06 75.2235 658.033 76.4084L658.133 76.3182V58.9837ZM664.553 39.3558C662.628 40.9858 660.15 41.8108 657.633 41.6591C656.441 41.6208 655.268 41.3441 654.184 40.8453C653.101 40.3465 652.128 39.6358 651.324 38.755L651.124 38.8551V53.4758H654.929L664.643 39.456L664.553 39.3558ZM687.485 82.8275L678.673 75.9077L675.959 78.6115L674.657 77.3197L677.761 74.1051V39.456H671.953L671.753 39.2557L675.258 34.0483H677.761V27.3388L688.386 16.0227L688.587 16.223V34.0483H696.598L696.798 34.2486L693.293 39.456H688.587V69.799L693.393 73.5043L696.698 70.0994L698 71.5014L687.485 82.8275Z" fill="black"/></g><defs><clipPath id="washington-post_svg__clip0_2_2997"><rect width="697.01" height="104.61" fill="white" transform="scale(1.00142)"/></clipPath></defs></svg>

<svg viewBox="0 0 698 105" fill="none" xmlns="http://www.w3.org/2000/svg"><g clip-path="url(#washington-post_svg__clip0_2_2997)"><path d="M39.256 32.045v36.652c4.706-2.803 7.01-6.81 8.712-12.117l1.202.601C48.068 70.4 38.855 83.218 24.835 83.218 10.815 83.218 0 72.703 0 55.879 0 43.061 7.71 35.15 18.727 28.24a16.13 16.13 0 0 0-4.407-.6c-7.21 0-11.416 4.906-11.416 9.913H1.502c-.083-.697-.117-1.4-.1-2.103 0-9.313 5.508-19.728 16.924-19.728 7.31 0 12.918 6.71 21.43 6.71 4.306 0 6.71-1.602 8.412-5.308h1.202c-.1 6.51-2.003 12.819-10.114 14.921Zm-19.027-3.304c-5.108 5.307-10.115 10.915-10.115 22.231 0 6.21 1.903 12.418 6.61 16.424l3.104-1.703V40.357l-3.204 1.703-1.002-1.603 15.021-8.412c-3.805-.8-6.91-2.303-10.414-3.304Zm17.124 3.705c-.765.085-1.534.119-2.303.1-1.346.02-2.69-.114-4.006-.4v29.541l-12.818 7.01a15.592 15.592 0 0 0 9.914 3.005 22.613 22.613 0 0 0 9.213-2.003V32.446Zm44.062 9.213v34.349c0 9.613-8.522 16.133-18.025 18.025l-.6-1.001c4.706-2.303 7.81-6.42 7.81-11.426V45.765l-4.907-4.507-2.603 2.604v27.139l3.004 2.804v.4l-8.112 8.623-9.313-8.523v-.4l3.605-3.806V25.837L62.89 14.52l.2.1v26.637l8.713-9.213 8.712 7.912 2.704-2.604 1.312 1.302-3.115 3.004ZM98.05 62.09v4.505l9.013 7.11 7.01-7.31 1.302 1.302-14.231 15.222-12.808-10.215-2.804 2.804-1.201-1.302 3.104-3.204V45.865l18.927-13.82 10.515 16.324-18.827 13.72Zm.2-22.633-.2.1v20.129l8.712-6.41-8.512-13.819Zm82.007 43.371-13.92-12.017-10.615 12.017L141.3 70.4V50.772h-2.804a3.895 3.895 0 0 0-4.105 3.505h-1.002a15.917 15.917 0 0 1-.501-3.805c0-2.604 1.102-9.414 8.412-9.414V25.837c0-5.909-3.905-6.21-3.905-11.316 0-5.709 5.408-11.016 15.322-14.521l.901.801c-3.305 1.602-6.009 3.605-6.009 7.911 0 6.61 6.409 4.907 6.409 15.322v4.006l11.717-12.318 12.318 12.118 11.616-12.118 11.216 11.016V63.79l-20.629 19.038Zm-14.621-49.98-7.01-6.91-4.607 4.706v34.35l8.513 7.31 3.104-3.505V32.847Zm22.632-1.302-5.608-5.608-4.306 4.306v34.649l9.814 8.612.1-.1v-41.86Zm44.864 51.282-9.414-8.622h-.2l-8.312 8.623-10.114-8.923-2.303 2.303-1.302-1.302 2.904-3.004V45.565l19.027-13.62 10.415 8.212 2.804-2.804 1.502 1.302-3.605 3.405v27.138l4.606 4.206 2.904-3.004 1.502 1.402-10.414 11.025Zm-9.414-37.463-8.311-6.509-.201.2v29.242l6.109 5.407 2.403-2.303V45.364Zm40.658 4.807h9.413v21.43l-15.922 11.227a11.536 11.536 0 0 0-8.813-4.116c-3.004 0-5.407 1.402-7.811 4.005l-1.402-.5 13.82-19.828h-8.512V43.761l16.623-11.717c2.003 1.603 3.605 2.604 6.209 2.604 2.55.085 5.055-.691 7.11-2.203l1.002.701-11.717 17.024Zm-1.402 8.813h-4.707l-11.115 15.922.1.2a12.375 12.375 0 0 1 7.61-2.503 10.409 10.409 0 0 1 8.012 3.805l.1-.09V58.984Zm6.409-19.628a9.744 9.744 0 0 1-6.91 2.303 8.934 8.934 0 0 1-6.309-2.904l-.2.1v14.62h3.805l9.714-14.019-.1-.1Zm40.057 2.303v34.349c0 9.613-8.522 16.133-18.026 18.025l-.601-1.001c4.707-2.303 7.812-6.42 7.812-11.426V45.765l-4.907-4.507-2.604 2.604v27.139l3.004 2.804v.4l-8.111 8.623-9.314-8.523v-.4l3.606-3.806V25.837l10.615-11.316.2.1v26.637l8.712-9.213 8.723 7.912 2.703-2.604 1.302 1.302-3.114 3.004Zm19.628 41.169-8.312-7.621-2.804 2.804-1.302-1.302 3.305-3.405v-28.54l-3.605-3.305-2.704 2.603-1.302-1.301 10.114-10.716 7.611 6.91 2.704-2.804 1.402 1.402-3.405 3.405v28.64l4.206 3.906 3.004-3.104 1.302 1.402-10.214 11.025Zm-2.904-51.684-8.212-7.51 7.511-8.012 8.211 7.51-7.51 8.012Zm46.165 51.684-8.712-7.922V45.665l-4.707-4.407-3.405 3.505v26.138l3.105 2.904v.4l-8.212 8.623-9.313-8.523v-.3l3.605-3.805V44.964l-4.106-3.706-3.004 3.005-1.402-1.302 10.214-10.916 9.113 8.112v2.003l9.514-10.114 8.712 7.81 2.904-2.904 1.302 1.402-3.505 3.505V69.9l3.906 3.705 3.304-3.404 1.202 1.301-10.515 11.326Zm43.061-41.059v33.938c0 5.208 2.904 5.008 2.904 8.913 0 4.516-6.509 8.722-16.523 16.233-3.305-3.605-5.608-5.107-8.713-5.107a19.88 19.88 0 0 0-10.715 3.605l-1.001-.801 13.719-16.133-9.012-7.1-2.905 2.894-1.301-1.302 3.404-3.505v-27.84l19.027-13.619 10.215 8.012 3.004-2.904 1.302 1.301-3.405 3.415Zm-7.711 41.77c-2.503-1.613-3.104-3.315-3.104-7.621v-1.513l-16.123 18.727.1.1c3.205-1.903 5.608-3.104 10.315-3.104 4.005 0 6.91 1.702 9.513 4.005 1.903-1.602 3.305-3.204 3.305-5.708 0-1.992-1.502-3.304-4.006-4.897v.01Zm-3.104-38.175-8.312-6.509-.2.2V69.8l5.908 4.606 2.604-3.004V45.364Zm31.545 37.464-8.813-6.92-2.704 2.704-1.302-1.292 3.105-3.215V39.456h-5.808l-.201-.2 3.505-5.208h2.504v-6.71l10.615-11.315.2.2v17.825h8.011l.201.2-3.505 5.208h-4.707v30.343l4.807 3.705 3.305-3.405 1.301 1.402-10.514 11.326Zm43.772-40.168V70.4l-16.924 12.518-12.328-9.314-2.804 2.804-1.302-1.302 3.205-3.304V44.763l17.735-12.718 11.416 8.913 2.904-2.904 1.302 1.402-3.204 3.204Zm-10.816 3.005-8.422-6.61-.09.1v29.843l8.512 6.409V45.665Zm50.472 37.052-8.712-7.91V45.564l-4.707-4.407-3.415 3.505V70.8l3.104 2.904v.401l-8.211 8.622-9.313-8.522v-.3l3.605-3.806V44.864l-4.106-3.706-3.004 3.005-1.402-1.302L493.6 31.945l9.113 8.112v2.003l9.514-10.115 8.712 7.811 2.904-2.904 1.302 1.402-3.505 3.505V69.8l3.905 3.705 3.305-3.405 1.202 1.302-10.505 11.316Zm61.477.11a12.927 12.927 0 0 0-6.309-4.616v20.84l-.2.1-5.508-5.108-11.616 10.716-.201-.101V77.71a18.853 18.853 0 0 0-10.214 6.62l-.801-.501c.701-7.721 4.506-13.43 11.015-15.632V48.669h-2.103a5.258 5.258 0 0 0-5.307 4.206h-1.202a12.3 12.3 0 0 1-.701-4.606c0-4.907 3.305-8.613 8.712-8.613h.601V28.841l-3.605-3.205-2.804 2.804-1.402-1.302 11.116-11.416 9.413 8.612v9.814l2.904-3.104V19.528h1.903v9.513l12.518-13.319 11.316 10.315v43.562l-17.525 13.228Zm-8.212-49.88-2.904 3.004v56.39l2.904 2.704V32.947Zm13.119-2.304-5.908-5.407-5.308 5.608v36.351c4.707.601 8.212 2.203 11.116 5.308l.1-.1v-41.76ZM634.7 42.66V70.4l-16.924 12.518-12.317-9.314-2.804 2.804-1.302-1.302 3.204-3.304V44.763l17.726-12.718 11.416 8.913 2.904-2.904 1.302 1.402-3.205 3.204Zm-10.815 3.005-8.412-6.61-.1.1v29.843l8.512 6.409V45.665Zm35.65 4.506h9.414v21.43l-15.923 11.227a11.532 11.532 0 0 0-8.812-4.116c-3.005 0-5.408 1.402-7.811 4.005l-1.402-.5 13.819-19.828h-8.512V43.761l16.624-11.717c2.003 1.603 3.605 2.604 6.209 2.604 2.553.085 5.06-.691 7.12-2.203l1.001.701-11.727 17.024Zm-1.402 8.813h-4.706l-11.116 15.922.1.2a12.378 12.378 0 0 1 7.611-2.503 10.415 10.415 0 0 1 8.011 3.805l.1-.09V58.984Zm6.42-19.628a9.796 9.796 0 0 1-6.92 2.303 8.939 8.939 0 0 1-6.309-2.904l-.2.1v14.62h3.805l9.714-14.019-.09-.1Zm22.932 43.471-8.812-6.92-2.714 2.705-1.302-1.292 3.104-3.215V39.456h-5.808l-.2-.2 3.505-5.208h2.503v-6.71l10.625-11.315.201.2v17.825h8.011l.2.2-3.505 5.208h-4.706v30.343l4.806 3.705 3.305-3.405L698 71.501l-10.515 11.326Z" fill="black"/></g><defs><clipPath id="washington-post_svg__clip0_2_2997"><path fill="white" transform="scale(1.00142)" d="M0 0h697.01v104.61H0z"/></clipPath></defs></svg>
